X:0784
T:The blind Sailor.
C:by Dibdin.
M:C
L:1/4
Q:1/2=60 "Slow"
I: ||
Z:Jack Campin * www.campin.me.uk * 2009
K:D
f|fe a>a|f2 dd|ef gf/e/| d2 c    a   |ba d'd'|d'2     f> f |b2    e>d|   c2z
f|fe a>a|f2 dd|ed ed   |(g2 g/)f/e/d/|ce a g |f/a/d' Hbe/d/|ca {b}ac |{e}d2z|]
<end>
<start>
